X:327
T:Hughie Travers'
R:jig
D:Begley & Cooney: Meitheal
Z:id:hn-jig-327
M:6/8
K:D
B|AFE F2D|AFD EFE|DFA ded|BAF E2B|
AFE F2D|AFD EFE|DFA ded|BAF D2:|
|:E|FAA BAA|dAA BAd|DFA ded|BAF E2D|
FAA BAA|dAA BAd|DFA ded|BAF D2:|

